src/assets/visualDescriptions/GaugeReaderIllustration.svg

<?xml version="1.0" encoding="UTF-8" standalone="no"?>
<svg
   xmlns:dc="http://purl.org/dc/elements/1.1/"
   xmlns:cc="http://creativecommons.org/ns#"
   xmlns:rdf="http://www.w3.org/1999/02/22-rdf-syntax-ns#"
   xmlns:svg="http://www.w3.org/2000/svg"
   xmlns="http://www.w3.org/2000/svg"
   xmlns:sodipodi="http://sodipodi.sourceforge.net/DTD/sodipodi-0.dtd"
   xmlns:inkscape="http://www.inkscape.org/namespaces/inkscape"
   width="213"
   height="230"
   viewBox="0 0 213 230"
   fill="none"
   version="1.1"
   id="svg96"
   sodipodi:docname="GaugeReaderIllustration.svg"
   inkscape:version="0.92.5 (2060ec1f9f, 2020-04-08)">
  <metadata
     id="metadata102">
    <rdf:RDF>
      <cc:Work
         rdf:about="">
        <dc:format>image/svg+xml</dc:format>
        <dc:type
           rdf:resource="http://purl.org/dc/dcmitype/StillImage" />
      </cc:Work>
    </rdf:RDF>
  </metadata>
  <defs
     id="defs100" />
  <sodipodi:namedview
     pagecolor="#ffffff"
     bordercolor="#666666"
     borderopacity="1"
     objecttolerance="10"
     gridtolerance="10"
     guidetolerance="10"
     inkscape:pageopacity="0"
     inkscape:pageshadow="2"
     inkscape:window-width="3440"
     inkscape:window-height="1376"
     id="namedview98"
     showgrid="false"
     inkscape:zoom="2.9022122"
     inkscape:cx="127.51314"
     inkscape:cy="97.071806"
     inkscape:window-x="1920"
     inkscape:window-y="27"
     inkscape:window-maximized="1"
     inkscape:current-layer="svg96" />
  <rect
     x="26"
     y="26"
     width="180"
     height="180"
     fill="#F6F7FF"
     id="rect2" />
  <rect
     x="21.5"
     y="21.5"
     width="189"
     height="189"
     stroke="#A4B2FC"
     stroke-dasharray="5 5"
     id="rect4" />
  <path
     d="M114.522 136.506L148.572 113.803L204.7 197.984C205.536 199.238 205.693 200.828 205.075 202.184C202.017 208.891 198.692 213.427 194.024 216.543C189.346 219.665 183.267 221.4 174.627 222.391C172.998 222.578 171.4 221.813 170.484 220.439L114.522 136.506Z"
     fill="white"
     stroke="#BFBFBF"
     id="path6" />
  <path
     d="M181.331 108.095C200.038 174.098 110.298 209.57 75.0022 176.922L63.0898 161.921L167.213 76.7695L181.331 108.095Z"
     fill="white"
     stroke="#BFBFBF"
     id="path8" />
  <path
     d="M136.399 145.924C118.253 158.83 97.9009 164.964 79.6792 164.468C61.4577 163.973 45.3985 156.854 35.7501 143.287C26.1017 129.72 24.6476 112.214 30.1604 94.8393C35.6732 77.4644 48.1473 60.2534 66.2937 47.348C84.4402 34.4427 104.792 28.3085 123.014 28.8039C141.235 29.2992 157.294 36.4187 166.943 49.9854C176.591 63.5521 178.045 81.0585 172.533 98.4331C167.02 115.808 154.546 133.019 136.399 145.924Z"
     fill="white"
     stroke="#BFBFBF"
     id="path10" />
  <path
     d="M129.014 136.483C113.629 147.424 96.3726 152.616 80.922 152.185C65.4717 151.754 51.8593 145.705 43.6773 134.201C35.4953 122.696 34.2497 107.852 38.9136 93.1163C43.5775 78.3801 54.1456 63.7834 69.53 52.8423C84.9143 41.9013 102.171 36.7096 117.622 37.1407C133.072 37.5718 146.684 43.6203 154.866 55.1252C163.048 66.63 164.294 81.4735 159.63 96.2094C154.966 110.946 144.398 125.542 129.014 136.483Z"
     fill="#EDF0FF"
     stroke="#BFBFBF"
     id="path12" />
  <path
     d="M124.385 132.839C110.897 142.432 96.068 147.397 83.0119 147.691C69.9525 147.986 58.7244 143.612 52.3136 134.597C45.9027 125.583 45.4561 113.541 50.0205 101.302C54.5838 89.0656 64.1413 76.6877 77.6297 67.095C91.1181 57.5023 105.947 52.5369 119.003 52.2426C132.063 51.9482 143.291 56.3225 149.702 65.3368C156.112 74.3512 156.559 86.393 151.995 98.6323C147.431 110.868 137.874 123.246 124.385 132.839Z"
     fill="white"
     stroke="#BFBFBF"
     id="path14" />
  <path
     d="M62.6498 118.684L73.1754 114.272C70.3896 101.309 79.2711 85.8202 95.2459 77.4454C113.559 67.8448 134.259 71.2292 141.481 85.0048C148.703 98.7804 139.712 117.731 121.398 127.331C118.04 129.092 114.602 130.416 111.181 131.319L113.388 137.214"
     stroke="#BFBFBF"
     id="path16" />
  <path
     d="M105.007 73.6803L104.125 66.6211"
     stroke="#BFBFBF"
     id="path18" />
  <path
     d="m 76.387301,88.729241 -5.2944,-1.7648"
     id="path20"
     inkscape:connector-curvature="0"
     style="stroke:#bfbfbf" />
  <path
     d="M135.895 78.0934L141.189 73.2402"
     stroke="#BFBFBF"
     id="path22" />
  <path
     d="M140.305 109.859L145.158 111.183"
     stroke="#BFBFBF"
     id="path24" />
  <path
     d="M 130.8565,101.98781 115.18846,99.970739 72,86 l -0.907099,0.964441 42.017559,16.503029 13.70526,9.25629 c 5.36597,-4.15945 4.92976,-8.89038 4.04078,-10.73595 z"
     id="path26"
     inkscape:connector-curvature="0"
     style="fill:#cc512b" />
  <path
     d="M112.328 96.192C113.019 97.5433 112.934 99.1719 112.17 100.741C111.406 102.31 109.972 103.789 108.036 104.779C106.099 105.77 104.061 106.067 102.341 105.767C100.622 105.468 99.2521 104.583 98.5611 103.232C97.8701 101.881 97.9544 100.252 98.7186 98.6831C99.4828 97.1137 100.917 95.635 102.853 94.6447C104.789 93.6544 106.828 93.3576 108.547 93.6567C110.267 93.9557 111.637 94.8407 112.328 96.192Z"
     fill="white"
     stroke="#BFBFBF"
     id="path28" />
  <path
     d="M108.829 97.6621C109.168 98.3241 109.136 99.1388 108.741 99.9492C108.346 100.76 107.599 101.535 106.579 102.057C105.559 102.578 104.493 102.73 103.605 102.576C102.717 102.421 102.037 101.97 101.699 101.308C101.36 100.646 101.392 99.8317 101.787 99.0213C102.182 98.2107 102.929 97.4355 103.949 96.9139C104.969 96.3922 106.035 96.2402 106.923 96.3947C107.811 96.5491 108.491 97 108.829 97.6621Z"
     fill="white"
     stroke="#BFBFBF"
     id="path30" />
  <path
     d="M59.8926 123.428C59.0688 123.854 58.2701 124.085 57.6574 124.13C57.35 124.153 57.1144 124.127 56.9534 124.075C56.7952 124.024 56.7446 123.961 56.7269 123.926C56.7093 123.892 56.6873 123.815 56.7372 123.656C56.788 123.495 56.9032 123.288 57.0996 123.05C57.4912 122.577 58.142 122.059 58.9658 121.634C59.7895 121.208 60.5882 120.977 61.201 120.932C61.5084 120.909 61.7439 120.935 61.9049 120.987C62.0631 121.038 62.1137 121.101 62.1314 121.135C62.149 121.17 62.171 121.247 62.1211 121.406C62.0703 121.567 61.9551 121.774 61.7587 122.012C61.3671 122.485 60.7163 123.003 59.8926 123.428Z"
     stroke="#BFBFBF"
     id="path32" />
  <path
     d="m 68.443801,83.876141 -1.3236,2.206 c -0.2942,-1.0294 -1.0589,-3.0884 -1.7648,-3.0884 -0.8824,0 -1.3236,1.3236 -0.8824,1.7648"
     id="path34"
     inkscape:connector-curvature="0"
     style="stroke:#bfbfbf" />
  <path
     d="M104.565 63.5339L101.477 63.9751L102.8 60.8867L103.683 65.2987"
     stroke="#BFBFBF"
     id="path36" />
  <path
     d="M147.362 69.7109C147.657 68.9755 146.921 67.5041 146.039 67.9466C145.345 68.2945 145.069 68.8172 144.715 69.0258M144.715 69.0258C143.618 69.6735 143.284 70.2597 142.95 70.5935C142.509 71.0347 142.95 72.3583 143.833 71.9171C144.539 71.5641 145.304 70.5935 145.598 70.1523C145.745 69.6954 145.774 68.8305 144.715 69.0258Z"
     stroke="#BFBFBF"
     id="path38" />
  <path
     d="M140.956 222.812L121.32 196.143L185.365 136.609L187.244 136.575L197.717 156.571L143.069 223.164L140.956 222.812Z"
     fill="white"
     stroke="#BFBFBF"
     id="path40" />
  <path
     d="M143.206 222.747L123.904 195.976L187.631 136.739L205.726 164.054L143.206 222.747Z"
     id="path42"
     stroke="#BFBFBF"
     fill="white" />
  <path
     d="M194.529 155.818L190.062 151.15L189.392 151.792L192.627 155.172L192.583 155.213L187.978 153.158L187.422 153.69L189.272 158.378L189.228 158.42L185.996 155.042L185.325 155.683L189.793 160.351L190.648 159.533L188.661 154.482L188.716 154.43L193.674 156.636L194.529 155.818Z"
     fill="#FFBB00"
     id="path44"
     style="fill:#bfbfbf;fill-opacity:1" />
  <path
     d="M184.308 156.657L183.604 157.331L185.552 159.366L183.569 161.264L184.147 161.868L186.13 159.97L187.491 161.393L185.3 163.489L185.881 164.095L188.775 161.325L184.308 156.657Z"
     fill="#FFBB00"
     id="path46"
     style="fill:#bfbfbf;fill-opacity:1" />
  <path
     d="M178.758 168.086L178.036 168.778C179.063 169.537 180.443 169.422 181.45 168.458C182.658 167.302 182.67 165.548 181.243 164.057C179.83 162.58 178.094 162.482 176.829 163.693C175.696 164.777 175.598 166.294 176.726 167.473L177.234 168.004L179.069 166.248L178.512 165.666L177.359 166.77C176.655 166.003 176.696 165.051 177.444 164.335C178.267 163.548 179.462 163.596 180.548 164.732C181.63 165.862 181.621 167.062 180.83 167.819C180.21 168.413 179.464 168.472 178.758 168.086Z"
     fill="#FFBB00"
     id="path48"
     style="fill:#bfbfbf;fill-opacity:1" />
  <path
     d="M176.458 169.759C176.209 169.997 176.196 170.398 176.438 170.651C176.676 170.9 177.08 170.906 177.328 170.669C177.579 170.429 177.588 170.027 177.35 169.779C177.108 169.526 176.709 169.519 176.458 169.759ZM174.22 167.421C173.971 167.658 173.958 168.06 174.2 168.313C174.438 168.561 174.842 168.568 175.09 168.33C175.341 168.09 175.35 167.689 175.112 167.44C174.87 167.187 174.471 167.181 174.22 167.421Z"
     fill="#FFBB00"
     id="path50"
     style="fill:#bfbfbf;fill-opacity:1" />
  <path
     d="M172.313 168.137L169.24 171.077L169.818 171.681L171.92 169.67L171.952 169.704L171.954 171.563C171.926 173.245 172.077 173.891 172.576 174.413C173.294 175.163 174.455 175.152 175.334 174.31C176.207 173.475 176.305 172.299 175.489 171.446L174.816 172.09C175.299 172.589 175.289 173.227 174.785 173.709C174.311 174.163 173.672 174.216 173.227 173.751C172.832 173.338 172.795 172.806 172.788 171.796L172.801 168.647L172.313 168.137Z"
     fill="#FFBB00"
     id="path52"
     style="fill:#bfbfbf;fill-opacity:1" />
  <path
     d="M166.683 173.376C165.605 174.407 165.816 175.891 167.28 177.421C168.732 178.939 170.217 179.208 171.286 178.185C172.357 177.16 172.153 175.669 170.701 174.147C169.239 172.619 167.766 172.344 166.683 173.376ZM167.266 173.984C167.897 173.38 168.884 173.649 170.001 174.816C171.111 175.981 171.344 176.986 170.715 177.588C170.088 178.188 169.092 177.914 167.979 176.751C166.863 175.584 166.637 174.586 167.266 173.984Z"
     fill="#FFBB00"
     id="path54"
     style="fill:#bfbfbf;fill-opacity:1" />
  <path
     d="M166.942 182.22L167.628 181.563L168.065 179.687L167.419 179.012L167 180.811L166.973 180.837L163.182 176.875L162.475 177.552L166.942 182.22Z"
     fill="#FFBB00"
     id="path56"
     style="fill:#bfbfbf;fill-opacity:1" />
  <path
     d="M162.189 179.572L159.976 181.69L159.103 180.778L158.431 181.422L159.304 182.333L158.686 182.925L159.257 183.522L159.875 182.931L162.898 186.09L163.767 185.259L162.735 180.142L162.189 179.572ZM160.543 182.291L162.022 180.876L162.057 180.912L162.8 184.577L162.764 184.612L160.543 182.291Z"
     fill="#FFBB00"
     id="path58"
     style="fill:#bfbfbf;fill-opacity:1" />
  <path
     d="M155.326 184.245C154.248 185.276 154.459 186.761 155.922 188.29C157.375 189.808 158.86 190.077 159.929 189.054C161 188.029 160.796 186.538 159.344 185.016C157.882 183.489 156.409 183.213 155.326 184.245ZM155.909 184.853C156.54 184.249 157.527 184.518 158.644 185.685C159.754 186.85 159.986 187.855 159.357 188.457C158.73 189.057 157.735 188.783 156.622 187.62C155.505 186.453 155.28 185.455 155.909 184.853Z"
     fill="#FFBB00"
     id="path60"
     style="fill:#bfbfbf;fill-opacity:1" />
  <path
     d="M155.865 192.943C156.854 192.014 156.82 190.697 155.974 189.813C155.119 188.924 153.859 188.898 153.049 189.673C152.555 190.146 152.362 190.793 152.498 191.414L152.461 191.449C151.436 190.374 151.24 189.361 151.924 188.706C152.37 188.279 152.919 188.277 153.392 188.589L154.087 187.924C153.263 187.267 152.169 187.292 151.335 188.091C150.25 189.129 150.463 190.711 152.027 192.346C153.661 194.048 155.026 193.733 155.865 192.943ZM155.296 192.353C154.755 192.87 153.918 192.793 153.427 192.28C152.928 191.763 152.913 190.904 153.446 190.393C153.982 189.881 154.78 189.938 155.299 190.476C155.818 191.019 155.831 191.84 155.296 192.353Z"
     fill="#FFBB00"
     id="path62"
     style="fill:#bfbfbf;fill-opacity:1" />
  <path
     d="M151.511 196.988L152.197 196.331L152.633 194.455L151.988 193.781L151.569 195.579L151.541 195.605L147.75 191.644L147.044 192.32L151.511 196.988Z"
     fill="#FFBB00"
     id="path64"
     style="fill:#bfbfbf;fill-opacity:1" />
  <path
     d="M145.787 193.522L142.715 196.462L143.293 197.067L145.394 195.055L145.427 195.09L145.429 196.948C145.401 198.63 145.552 199.276 146.051 199.798C146.769 200.548 147.929 200.538 148.809 199.696C149.682 198.86 149.779 197.684 148.964 196.832L148.291 197.475C148.773 197.975 148.764 198.613 148.26 199.095C147.786 199.548 147.147 199.601 146.702 199.136C146.307 198.724 146.269 198.192 146.263 197.181L146.276 194.033L145.787 193.522Z"
     fill="#FFBB00"
     id="path66"
     style="fill:#bfbfbf;fill-opacity:1" />
  <path
     fill-rule="evenodd"
     clip-rule="evenodd"
     d="M92 142L93.5 142L95 142L95 140.5L95 139L93.5 139L93.5 140.5L92 140.5L92 142ZM95 133L95 131.5L95 130L93.5 130L92 130L92 131.5L93.5 131.5L93.5 133L95 133ZM83 140.5L83 139L84.5 139L84.5 140.5L86 140.5L86 142L84.5 142L83 142L83 140.5ZM86 130L84.5 130L83 130L83 131.5L83 133L84.5 133L84.5 131.5L86 131.5L86 130Z"
     fill="white"
     id="path72" />
  <path
     d="M87.6015 138.4L88.0282 137.216H89.9724L90.4017 138.4H91.4016L89.5785 133.6H88.4221L86.6016 138.4H87.6015ZM88.2807 136.518L88.9801 134.584H89.0205L89.7199 136.518H88.2807Z"
     fill="white"
     id="path74" />
  <path
     d="m 50.674901,73.694941 h 28 v 21.999998 h -28 z"
     id="path78"
     inkscape:connector-curvature="0"
     style="fill:#ff6914;fill-opacity:0.2;stroke:#ff6918;stroke-width:5" />
  <rect
     x="48.174896"
     y="71.194939"
     width="10"
     height="10"
     id="rect80"
     style="fill:#ff6918" />
  <rect
     x="48.174896"
     y="88.194939"
     width="10"
     height="10"
     id="rect82"
     style="fill:#ff6918" />
  <rect
     x="71.174904"
     y="71.194939"
     width="10"
     height="10"
     id="rect84"
     style="fill:#ff6918" />
  <rect
     x="71.174904"
     y="88.194939"
     width="10"
     height="10"
     id="rect86"
     style="fill:#ff6918" />
  <rect
     width="45"
     height="24"
     id="rect88"
     x="48.174896"
     y="47.194942"
     style="fill:#ff6918" />
  <path
     d="m 65.174901,65.194941 h 1.5 1.5 v -1.5 -1.5 h -1.5 v 1.5 h -1.5 z m 3,-9 v -1.5 -1.5 h -1.5 -1.5 v 1.5 h 1.5 v 1.5 z m -12,7.5 v -1.5 h 1.5 v 1.5 h 1.5 v 1.5 h -1.5 -1.5 z m 3,-10.5 h -1.5 -1.5 v 1.5 1.5 h 1.5 v -1.5 h 1.5 z"
     id="path90"
     inkscape:connector-curvature="0"
     style="clip-rule:evenodd;fill:#ffffff;fill-rule:evenodd" />
  <path
     d="m 78.078301,63.194941 h 5.5057 v -0.9375 h -4.0568 v -0.0682 l 1.9602,-2.0966 c 1.5,-1.6065 1.9432,-2.3565 1.9432,-3.3238 0,-1.3466 -1.0909,-2.4205 -2.625,-2.4205 -1.5298,0 -2.6932,1.0398 -2.6932,2.5739 h 1.0057 c 0,-0.9929 0.6434,-1.6534 1.6534,-1.6534 0.946,0 1.6704,0.5795 1.6704,1.5 0,0.8054 -0.473,1.402 -1.4829,2.5056 l -2.8807,3.1535 z"
     id="path94"
     inkscape:connector-curvature="0"
     style="fill:#f5f5f5" />
  <path
     inkscape:connector-curvature="0"
     style="clip-rule:evenodd;fill:#f5f5f5;fill-rule:evenodd"
     d="m 68.174901,56.194941 v -1.5 -1.5 h -1.5 -1.5 v 1.5 h 1.5 v 1.5 z m -10.5,-3 h 1.5 v 1.5 h -1.5 v 1.5 h -1.5 v -1.5 -1.5 z m 1.5,3 h 6 v 6 h -6 z m 7.5,9 h -1.5 v -1.5 h 1.5 v -1.5 h 1.5 v 1.5 1.5 z m -10.5,-3 v 1.5 1.5 h 1.5 1.5 v -1.5 h -1.5 v -1.5 z"
     id="path105" />
</svg>

<svg xmlns="http://www.w3.org/2000/svg" width="213" height="230" fill="none"><path fill="#F6F7FF" d="M26 26h180v180H26z"/><path stroke="#A4B2FC" d="M21.5 21.5h189v189h-189z"/><path fill="#fff" stroke="#BFBFBF" d="m114.522 136.506 34.05-22.703 56.128 84.181c.836 1.254.993 2.844.375 4.2-3.058 6.707-6.383 11.243-11.051 14.359-4.678 3.122-10.757 4.857-19.397 5.848-1.629.187-3.227-.578-4.143-1.952l-55.962-83.933z"/><path fill="#fff" stroke="#BFBFBF" d="M181.331 108.095c18.707 66.003-71.033 101.475-106.329 68.827L63.09 161.921 167.213 76.77l14.118 31.325z"/><path fill="#fff" stroke="#BFBFBF" d="M136.399 145.924c-18.146 12.906-38.498 19.04-56.72 18.544-18.221-.495-34.28-7.614-43.929-21.181-9.648-13.567-11.102-31.073-5.59-48.448 5.513-17.375 17.987-34.586 36.134-47.491 18.146-12.905 38.498-19.04 56.72-18.544 18.221.495 34.28 7.615 43.929 21.181 9.648 13.567 11.102 31.073 5.59 48.448-5.513 17.375-17.987 34.586-36.134 47.491z"/><path fill="#EDF0FF" stroke="#BFBFBF" d="M129.014 136.483c-15.385 10.941-32.641 16.133-48.092 15.702-15.45-.431-29.063-6.48-37.245-17.984-8.182-11.505-9.427-26.349-4.763-41.085C43.577 78.38 54.146 63.783 69.53 52.842c15.384-10.94 32.641-16.132 48.092-15.701 15.45.43 29.062 6.48 37.244 17.984 8.182 11.505 9.428 26.349 4.764 41.084-4.664 14.737-15.232 29.333-30.616 40.274z"/><path fill="#fff" stroke="#BFBFBF" d="M124.385 132.839c-13.488 9.593-28.317 14.558-41.373 14.852-13.06.295-24.288-4.079-30.698-13.094-6.411-9.014-6.858-21.056-2.294-33.295 4.564-12.236 14.121-24.614 27.61-34.207 13.488-9.593 28.317-14.558 41.373-14.852 13.06-.295 24.288 4.08 30.699 13.094 6.41 9.014 6.857 21.056 2.293 33.295-4.564 12.236-14.121 24.614-27.61 34.207z"/><path stroke="#BFBFBF" d="m62.65 118.684 10.525-4.412c-2.785-12.963 6.096-28.452 22.07-36.827 18.314-9.6 39.014-6.216 46.236 7.56 7.222 13.775-1.769 32.726-20.083 42.326a48.909 48.909 0 0 1-10.217 3.988l2.207 5.895M105.007 73.68l-.882-7.059"/><path stroke="#bfbfbf" d="m76.387 88.73-5.294-1.766"/><path stroke="#BFBFBF" d="m135.895 78.093 5.294-4.853M140.305 109.859l4.853 1.324"/><path fill="#cc512b" d="m130.857 101.988-15.669-2.017L72 86l-.907.964 42.017 16.503 13.706 9.257c5.366-4.16 4.93-8.89 4.04-10.736z"/><path fill="#fff" stroke="#BFBFBF" d="M112.328 96.192c.691 1.351.606 2.98-.158 4.549-.764 1.569-2.198 3.048-4.134 4.038-1.937.991-3.975 1.288-5.695.988-1.719-.299-3.089-1.184-3.78-2.535-.69-1.351-.607-2.98.158-4.549.764-1.57 2.198-3.048 4.134-4.038 1.936-.99 3.975-1.287 5.694-.988 1.72.299 3.09 1.184 3.781 2.535z"/><path fill="#fff" stroke="#BFBFBF" d="M108.829 97.662c.339.662.307 1.477-.088 2.287-.395.811-1.142 1.586-2.162 2.108-1.02.521-2.086.673-2.974.519-.888-.155-1.568-.606-1.906-1.268-.339-.662-.307-1.476.088-2.287.395-.81 1.142-1.585 2.162-2.107 1.02-.522 2.086-.674 2.974-.52.888.155 1.568.606 1.906 1.268z"/><path stroke="#BFBFBF" d="M59.893 123.428c-.824.426-1.623.657-2.236.702-.307.023-.543-.003-.704-.055-.158-.051-.208-.114-.226-.149-.018-.034-.04-.111.01-.27.051-.161.166-.368.363-.606.391-.473 1.042-.991 1.866-1.416.823-.426 1.622-.657 2.235-.702.307-.023.543.003.704.055.158.051.209.114.226.148.018.035.04.112-.01.271-.05.161-.166.368-.362.606-.392.473-1.043.991-1.866 1.416z"/><path stroke="#bfbfbf" d="m68.444 83.876-1.324 2.206c-.294-1.03-1.059-3.088-1.765-3.088-.882 0-1.323 1.323-.882 1.765"/><path stroke="#BFBFBF" d="m104.565 63.534-3.088.441 1.323-3.088.883 4.412M147.362 69.71c.295-.734-.441-2.206-1.323-1.763-.694.347-.97.87-1.324 1.079m0 0c-1.097.648-1.431 1.234-1.765 1.568-.441.44 0 1.764.883 1.323.706-.353 1.471-1.323 1.765-1.765.147-.457.176-1.322-.883-1.126z"/><path fill="#fff" stroke="#BFBFBF" d="m140.956 222.812-19.636-26.669 64.045-59.534 1.879-.034 10.473 19.996-54.648 66.593-2.113-.352z"/><path fill="#fff" stroke="#BFBFBF" d="m143.206 222.747-19.302-26.771 63.727-59.237 18.095 27.315-62.52 58.693z"/><path fill="#bfbfbf" d="m194.529 155.818-4.467-4.668-.67.642 3.235 3.38-.044.041-4.605-2.055-.556.532 1.85 4.688-.044.042-3.232-3.378-.671.641 4.468 4.668.855-.818-1.987-5.051.055-.052 4.958 2.206.855-.818zM184.308 156.657l-.704.674 1.948 2.035-1.983 1.898.578.604 1.983-1.898 1.361 1.423-2.191 2.096.581.606 2.894-2.77-4.467-4.668zM178.758 168.086l-.722.692c1.027.759 2.407.644 3.414-.32 1.208-1.156 1.22-2.91-.207-4.401-1.413-1.477-3.149-1.575-4.414-.364-1.133 1.084-1.231 2.601-.103 3.78l.508.531 1.835-1.756-.557-.582-1.153 1.104c-.704-.767-.663-1.719.085-2.435.823-.787 2.018-.739 3.104.397 1.082 1.13 1.073 2.33.282 3.087-.62.594-1.366.653-2.072.267zM176.458 169.759a.632.632 0 0 0-.02.892.632.632 0 0 0 .912-.872.63.63 0 0 0-.892-.02zm-2.238-2.338a.632.632 0 0 0-.02.892.632.632 0 0 0 .912-.873.63.63 0 0 0-.892-.019zM172.313 168.137l-3.073 2.94.578.604 2.102-2.011.032.034.002 1.859c-.028 1.682.123 2.328.622 2.85.718.75 1.879.739 2.758-.103.873-.835.971-2.011.155-2.864l-.673.644c.483.499.473 1.137-.031 1.619-.474.454-1.113.507-1.558.042-.395-.413-.432-.945-.439-1.955l.013-3.149-.488-.51zM166.683 173.376c-1.078 1.031-.867 2.515.597 4.045 1.452 1.518 2.937 1.787 4.006.764 1.071-1.025.867-2.516-.585-4.038-1.462-1.528-2.935-1.803-4.018-.771zm.583.608c.631-.604 1.618-.335 2.735.832 1.11 1.165 1.343 2.17.714 2.772-.627.6-1.623.326-2.736-.837-1.116-1.167-1.342-2.165-.713-2.767zM166.942 182.22l.686-.657.437-1.876-.646-.675-.419 1.799-.027.026-3.791-3.962-.707.677 4.467 4.668zM162.189 179.572l-2.213 2.118-.873-.912-.672.644.873.911-.618.592.571.597.618-.591 3.023 3.159.869-.831-1.032-5.117-.546-.57zm-1.646 2.719 1.479-1.415.035.036.743 3.665-.036.035-2.221-2.321zM155.326 184.245c-1.078 1.031-.867 2.516.596 4.045 1.453 1.518 2.938 1.787 4.007.764 1.071-1.025.867-2.516-.585-4.038-1.462-1.527-2.935-1.803-4.018-.771zm.583.608c.631-.604 1.618-.335 2.735.832 1.11 1.165 1.342 2.17.713 2.772-.627.6-1.622.326-2.735-.837-1.117-1.167-1.342-2.165-.713-2.767zM155.865 192.943c.989-.929.955-2.246.109-3.13-.855-.889-2.115-.915-2.925-.14-.494.473-.687 1.12-.551 1.741l-.037.035c-1.025-1.075-1.221-2.088-.537-2.743.446-.427.995-.429 1.468-.117l.695-.665c-.824-.657-1.918-.632-2.752.167-1.085 1.038-.872 2.62.692 4.255 1.634 1.702 2.999 1.387 3.838.597zm-.569-.59c-.541.517-1.378.44-1.869-.073-.499-.517-.514-1.376.019-1.887.536-.512 1.334-.455 1.853.083.519.543.532 1.364-.003 1.877zM151.511 196.988l.686-.657.436-1.876-.645-.674-.419 1.798-.028.026-3.791-3.961-.706.676 4.467 4.668zM145.787 193.522l-3.072 2.94.578.605 2.101-2.012.033.035.002 1.858c-.028 1.682.123 2.328.622 2.85.718.75 1.878.74 2.758-.102.873-.836.97-2.012.155-2.864l-.673.643c.482.5.473 1.138-.031 1.62-.474.453-1.113.506-1.558.041-.395-.412-.433-.944-.439-1.955l.013-3.148-.489-.511z"/><path fill="#fff" d="M92 142h3v-3h-1.5v1.5H92v1.5zm3-9v-3h-3v1.5h1.5v1.5H95zm-12 7.5V139h1.5v1.5H86v1.5h-3v-1.5zm3-10.5h-3v3h1.5v-1.5H86V130zM87.602 138.4l.426-1.184h1.944l.43 1.184h1l-1.823-4.8h-1.157l-1.82 4.8h1zm.679-1.882.7-1.934h.04l.699 1.934h-1.44z"/><path fill="#ff6914" stroke="#ff6918" d="M50.675 73.695h28v22h-28z"/><path fill="#ff6918" d="M48.175 71.195h10v10h-10zM48.175 88.195h10v10h-10zM71.175 71.195h10v10h-10zM71.175 88.195h10v10h-10zM48.175 47.195h45v24h-45z"/><path fill="#fff" d="M65.175 65.195h3v-3h-1.5v1.5h-1.5zm3-9v-3h-3v1.5h1.5v1.5zm-12 7.5v-1.5h1.5v1.5h1.5v1.5h-3zm3-10.5h-3v3h1.5v-1.5h1.5z"/><path fill="#f5f5f5" d="M78.078 63.195h5.506v-.938h-4.057v-.068l1.96-2.096c1.5-1.607 1.944-2.357 1.944-3.324 0-1.347-1.091-2.42-2.625-2.42-1.53 0-2.694 1.04-2.694 2.573h1.006c0-.993.644-1.653 1.654-1.653.946 0 1.67.58 1.67 1.5 0 .805-.473 1.402-1.483 2.505l-2.88 3.154zM68.175 56.195v-3h-3v1.5h1.5v1.5zm-10.5-3h1.5v1.5h-1.5v1.5h-1.5v-3zm1.5 3h6v6h-6zm7.5 9h-1.5v-1.5h1.5v-1.5h1.5v3zm-10.5-3v3h3v-1.5h-1.5v-1.5z"/></svg>
